proprietary/assets/icons/computer-en-internet/laptop.svg

<svg height="64" viewBox="0 0 64 64" width="64" xmlns="http://www.w3.org/2000/svg"><path d="m0 0h64v64h-64z" fill="none"/><path d="m37.8934 24.1064-11.8762-2.9083 6.4436 9.7618 1.0236-2.8186 3.8641 2.4973 1.5019-2.3223-3.7205-2.4044z"/><path d="m58.5723 45.2876-5.562-8.2724-.9737-22.1353c-.0649-1.6148-1.3813-2.8799-2.9975-2.8799h-34.0782c-1.6162 0-2.9326 1.2651-2.997 2.8721l-.9741 22.1431-5.5621 8.2724c-.2802.4663-.4277.9995-.4277 1.5435v4.1689c0 1.1045.8955 2 2 2h50c1.1045 0 2-.8955 2-2v-4.1689c0-.544-.1475-1.0772-.4277-1.5435zm-33.5723.7124 2-4h10l2 4zm26.8724-9h-39.7448c-.0243-.1208.0018-.2873.2409-.3617 1.1795-.3669 2.6765-.7943 2.6765-.7943l.873-19.844h32.164l.873 19.8441s1.1595.333 2.67.7809c.2401.0712.2812.2604.2474.375z"/></svg>

<?xml version="1.0" encoding="utf-8"?>
<!-- Generator: Adobe Illustrator 17.1.0, SVG Export Plug-In . SVG Version: 6.00 Build 0)  -->
<svg version="1.2" baseProfile="tiny" xmlns="http://www.w3.org/2000/svg" xmlns:xlink="http://www.w3.org/1999/xlink" x="0px"
	 y="0px" width="64px" height="64px" viewBox="0 0 64 64" xml:space="preserve">
<g id="_x36_4px_Boxes">
	<rect fill="none" width="64" height="64"/>
</g>
<g id="Production">
	<g>
		<polygon points="37.8934,24.1064 26.0172,21.1981 32.4608,30.9599 33.4844,28.1413 37.3485,30.6386 38.8504,28.3163 
			35.1299,25.9119 		"/>
		<path d="M58.5723,45.2876l-5.562-8.2724l-0.9737-22.1353C51.9717,13.2651,50.6553,12,49.0391,12H14.9609
			c-1.6162,0-2.9326,1.2651-2.997,2.8721l-0.9741,22.1431l-5.5621,8.2724C5.1475,45.7539,5,46.2871,5,46.8311V51
			c0,1.1045,0.8955,2,2,2h50c1.1045,0,2-0.8955,2-2v-4.1689C59,46.2871,58.8525,45.7539,58.5723,45.2876z M25,46l2-4h10l2,4H25z
			 M51.8724,37H12.1276c-0.0243-0.1208,0.0018-0.2873,0.2409-0.3617c1.1795-0.3669,2.6765-0.7943,2.6765-0.7943L15.918,16H48.082
			l0.873,19.8441c0,0,1.1595,0.333,2.67,0.7809C51.8651,36.6962,51.9062,36.8854,51.8724,37z"/>
	</g>
</g>
</svg>
